gnome/icons/Varda/apps/scalable/gnome-tweak-tool.svg

<?xml version="1.0" encoding="UTF-8" standalone="no"?>
<svg
   xmlns:dc="http://purl.org/dc/elements/1.1/"
   xmlns:cc="http://creativecommons.org/ns#"
   xmlns:rdf="http://www.w3.org/1999/02/22-rdf-syntax-ns#"
   xmlns:svg="http://www.w3.org/2000/svg"
   xmlns="http://www.w3.org/2000/svg"
   xmlns:sodipodi="http://sodipodi.sourceforge.net/DTD/sodipodi-0.dtd"
   xmlns:inkscape="http://www.inkscape.org/namespaces/inkscape"
   width="64px"
   height="64px"
   viewBox="0 0 64 64"
   version="1.1"
   id="svg7"
   sodipodi:docname="gnome-tweak-tool.svg"
   inkscape:version="1.0.2 (e86c870879, 2021-01-15)">
  <metadata
     id="metadata13">
    <rdf:RDF>
      <cc:Work
         rdf:about="">
        <dc:format>image/svg+xml</dc:format>
        <dc:type
           rdf:resource="http://purl.org/dc/dcmitype/StillImage" />
      </cc:Work>
    </rdf:RDF>
  </metadata>
  <defs
     id="defs11" />
  <sodipodi:namedview
     pagecolor="#ffffff"
     bordercolor="#666666"
     borderopacity="1"
     objecttolerance="10"
     gridtolerance="10"
     guidetolerance="10"
     inkscape:pageopacity="0"
     inkscape:pageshadow="2"
     inkscape:window-width="2560"
     inkscape:window-height="1403"
     id="namedview9"
     showgrid="false"
     inkscape:zoom="15.75"
     inkscape:cx="32"
     inkscape:cy="32"
     inkscape:window-x="0"
     inkscape:window-y="0"
     inkscape:window-maximized="1"
     inkscape:current-layer="surface1" />
  <g
     id="surface1">
    <path
       style="fill:#0c0e11;fill-opacity:1;fill-rule:nonzero;stroke:none"
       d="m 31.75,3.144531 c 16.074219,0 29.105469,13.03125 29.105469,29.105469 0,16.074219 -13.03125,29.105469 -29.105469,29.105469 C 15.675781,61.355469 2.644531,48.324219 2.644531,32.25 2.644531,16.175781 15.675781,3.144531 31.75,3.144531 Z m 0,0"
       id="path2" />
    <path
       style="fill:#d0ebee;fill-opacity:1;fill-rule:nonzero;stroke:none"
       d="m 42.765625,14.417969 c -6.964844,0 -8.273437,10.585937 -4.355469,10.585937 3.921875,0 11.320313,-10.585937 4.355469,-10.585937 z m -10.734375,1.625 c -0.109375,0 -0.222656,0.01563 -0.34375,0.02344 -3.953125,0.5 -2.5625,7.179688 -0.460938,7.304688 2.03125,0.117187 4.257813,-7.316406 0.804688,-7.328125 z m -6.839844,2.472656 c -0.242187,-0.01953 -0.507812,0.02734 -0.804687,0.148437 -3.171875,1.300782 -0.484375,6.683594 1.292969,6.324219 1.609374,-0.332031 1.84375,-6.324219 -0.488282,-6.472656 z m -5.175781,4.394531 c -0.28125,-0.0078 -0.578125,0.08594 -0.894531,0.324219 -2.539063,1.894531 0.855468,6.476563 2.347656,5.765625 1.308594,-0.621094 0.476562,-6.023438 -1.453125,-6.089844 z m 15,4.371094 c -5.503906,-0.09375 -12.765625,2.695312 -14,8.308594 -1.34375,6.070312 5.515625,14.492187 12.667969,14.492187 3.527344,0 7.582031,-3.21875 8.347656,-7.292969 0.578125,-3.109374 -6.832031,-1.863281 -6.566406,0.191407 0.320312,2.464843 -1.785156,3.683593 -3.847656,2.09375 -6.5625,-5.054688 10.875,-7.582031 9.71875,-14.492188 -0.355469,-2.148437 -3.027344,-3.246093 -6.328126,-3.300781 z m 0,0"
       id="path4" />
  </g>
</svg>

<?xml version="1.0" encoding="UTF-8"?>
<svg xmlns="http://www.w3.org/2000/svg" xmlns:xlink="http://www.w3.org/1999/xlink" width="64px" height="64px" viewBox="0 0 64 64" version="1.1">
<g id="surface1">
<path style=" stroke:none;fill-rule:nonzero;fill:rgb(25.882354%,25.882354%,25.882354%);fill-opacity:1;" d="M 31.75 3.144531 C 47.824219 3.144531 60.855469 16.175781 60.855469 32.25 C 60.855469 48.324219 47.824219 61.355469 31.75 61.355469 C 15.675781 61.355469 2.644531 48.324219 2.644531 32.25 C 2.644531 16.175781 15.675781 3.144531 31.75 3.144531 Z M 31.75 3.144531 "/>
<path style=" stroke:none;fill-rule:nonzero;fill:rgb(87.843138%,87.843138%,87.843138%);fill-opacity:1;" d="M 42.765625 14.417969 C 35.800781 14.417969 34.492188 25.003906 38.410156 25.003906 C 42.332031 25.003906 49.730469 14.417969 42.765625 14.417969 Z M 32.03125 16.042969 C 31.921875 16.042969 31.808594 16.058594 31.6875 16.066406 C 27.734375 16.566406 29.125 23.246094 31.226562 23.371094 C 33.257812 23.488281 35.484375 16.054688 32.03125 16.042969 Z M 25.191406 18.515625 C 24.949219 18.496094 24.683594 18.542969 24.386719 18.664062 C 21.214844 19.964844 23.902344 25.347656 25.679688 24.988281 C 27.289062 24.65625 27.523438 18.664062 25.191406 18.515625 Z M 20.015625 22.910156 C 19.734375 22.902344 19.4375 22.996094 19.121094 23.234375 C 16.582031 25.128906 19.976562 29.710938 21.46875 29 C 22.777344 28.378906 21.945312 22.976562 20.015625 22.910156 Z M 35.015625 27.28125 C 29.511719 27.1875 22.25 29.976562 21.015625 35.589844 C 19.671875 41.660156 26.53125 50.082031 33.683594 50.082031 C 37.210938 50.082031 41.265625 46.863281 42.03125 42.789062 C 42.609375 39.679688 35.199219 40.925781 35.464844 42.980469 C 35.785156 45.445312 33.679688 46.664062 31.617188 45.074219 C 25.054688 40.019531 42.492188 37.492188 41.335938 30.582031 C 40.980469 28.433594 38.308594 27.335938 35.007812 27.28125 Z M 35.015625 27.28125 "/>
</g>
</svg>
